resources/svg/laravel-o.svg

<svg xmlns="http://www.w3.org/2000/svg" viewBox="0 0 15 15" fill="none"><path d="M2 3.57148L1.84189 3.09714C1.59403 3.17976 1.45156 3.43928 1.51493 3.69275L2 3.57148ZM4.35714 2.78577L4.80436 2.56216C4.69308 2.3396 4.43509 2.23274 4.19903 2.31142L4.35714 2.78577ZM9.07143 12.2143L8.62422 12.4379C8.6865 12.5625 8.79792 12.6555 8.93163 12.6944C9.06535 12.7333 9.20925 12.7147 9.32868 12.6431L9.07143 12.2143ZM13 9.85719L13.2572 10.2859C13.3729 10.2165 13.4556 10.1034 13.4866 9.97207C13.5176 9.84079 13.4942 9.70256 13.4218 9.58876L13 9.85719ZM10.25 5.53577L10.1287 5.0507C9.97281 5.08968 9.84513 5.20123 9.78558 5.35052C9.72604 5.4998 9.74188 5.66861 9.82817 5.8042L10.25 5.53577ZM11.8214 5.14291L12.2214 4.84291C12.1007 4.68197 11.8953 4.60905 11.7002 4.65784L11.8214 5.14291ZM13 6.71434L13.1581 7.18868C13.3106 7.13786 13.4293 7.01683 13.4773 6.86342C13.5252 6.71001 13.4964 6.54292 13.4 6.41434L13 6.71434ZM3.57143 9.85719L3.08636 9.97846C3.12014 10.1136 3.20874 10.2285 3.33082 10.2955C3.45291 10.3625 3.59742 10.3756 3.72954 10.3315L3.57143 9.85719ZM2.15811 4.04582L4.51526 3.26011L4.19903 2.31142L1.84189 3.09714L2.15811 4.04582ZM3.90993 3.00937L6.8283 8.84611L7.72272 8.39889L4.80436 2.56216L3.90993 3.00937ZM6.8283 8.84611L8.62422 12.4379L9.51864 11.9907L7.72272 8.39889L6.8283 8.84611ZM9.32868 12.6431L13.2572 10.2859L12.7428 9.42845L8.81418 11.7856L9.32868 12.6431ZM13.4218 9.58876L11.7718 6.9959L10.9282 7.53278L12.5782 10.1256L13.4218 9.58876ZM11.7718 6.9959L10.6718 5.26733L9.82817 5.8042L10.9282 7.53278L11.7718 6.9959ZM10.3713 6.02084L11.9427 5.62798L11.7002 4.65784L10.1287 5.0507L10.3713 6.02084ZM11.4214 5.44291L12.6 7.01434L13.4 6.41434L12.2214 4.84291L11.4214 5.44291ZM12.8419 6.24L11.1919 6.79L11.5081 7.73868L13.1581 7.18868L12.8419 6.24ZM11.1919 6.79L7.1174 8.14816L7.43362 9.09684L11.5081 7.73868L11.1919 6.79ZM7.1174 8.14816L3.41331 9.38285L3.72954 10.3315L7.43362 9.09684L7.1174 8.14816ZM4.0565 9.73593L2.48507 3.45021L1.51493 3.69275L3.08636 9.97846L4.0565 9.73593ZM2.5 1H12.5V0H2.5V1ZM14 2.5V12.5H15V2.5H14ZM12.5 14H2.5V15H12.5V14ZM1 12.5V2.5H0V12.5H1ZM2.5 14C1.67157 14 1 13.3284 1 12.5H0C0 13.8807 1.11929 15 2.5 15V14ZM14 12.5C14 13.3284 13.3284 14 12.5 14V15C13.8807 15 15 13.8807 15 12.5H14ZM12.5 1C13.3284 1 14 1.67157 14 2.5H15C15 1.11929 13.8807 0 12.5 0V1ZM2.5 0C1.11929 0 0 1.11929 0 2.5H1C1 1.67157 1.67157 1 2.5 1V0Z" fill="black"/></svg>

<svg xmlns="http://www.w3.org/2000/svg" viewBox="0 0 15 15" fill="none"><path d="M2 3.571l-.158-.474a.5.5 0 00-.327.596L2 3.57zm2.357-.785l.447-.224a.5.5 0 00-.605-.25l.158.474zm4.714 9.428l-.447.224a.5.5 0 00.705.205l-.258-.429zM13 9.857l.257.429a.5.5 0 00.165-.697L13 9.857zm-2.75-4.321l-.121-.485a.5.5 0 00-.3.753l.421-.268zm1.571-.393l.4-.3a.5.5 0 00-.52-.185l.12.485zM13 6.714l.158.475a.5.5 0 00.242-.775l-.4.3zM3.571 9.857l-.485.121a.5.5 0 00.644.354l-.159-.475zM2.158 4.046l2.357-.786-.316-.949-2.357.786.316.949zM3.91 3.009l2.918 5.837.895-.447-2.919-5.837-.894.447zm2.918 5.837l1.796 3.592.895-.447-1.796-3.592-.895.447zm2.5 3.797l3.93-2.357-.515-.858-3.929 2.358.515.857zm4.094-3.054l-1.65-2.593-.844.537 1.65 2.593.844-.537zm-1.65-2.593l-1.1-1.729-.844.537 1.1 1.729.844-.537zm-1.4-.975l1.57-.393-.242-.97-1.571.393.242.97zm1.05-.578L12.6 7.014l.8-.6-1.179-1.571-.8.6zm1.42.797l-1.65.55.316.949 1.65-.55-.316-.949zm-1.65.55L7.117 8.148l.317.949 4.074-1.358-.316-.949zM7.117 8.148L3.413 9.383l.317.949 3.704-1.235-.317-.949zm-3.06 1.588L2.484 3.45l-.97.243 1.571 6.285.97-.242zM2.5 1h10V0h-10v1zM14 2.5v10h1v-10h-1zM12.5 14h-10v1h10v-1zM1 12.5v-10H0v10h1zM2.5 14A1.5 1.5 0 011 12.5H0A2.5 2.5 0 002.5 15v-1zM14 12.5a1.5 1.5 0 01-1.5 1.5v1a2.5 2.5 0 002.5-2.5h-1zM12.5 1A1.5 1.5 0 0114 2.5h1A2.5 2.5 0 0012.5 0v1zm-10-1A2.5 2.5 0 000 2.5h1A1.5 1.5 0 012.5 1V0z" fill="currentColor"/></svg>
